IMB-X-Files/The-Ambassadors-Assets/660c0a30d3ca30456a062c9b_HubSpot_Logo 1.svg

<svg fill="none" height="47" viewBox="0 0 161 47" width="161" xmlns="http://www.w3.org/2000/svg" xmlns:xlink="http://www.w3.org/1999/xlink"><clipPath id="a"><path d="m.643066.395752h159.647v46.349h-159.647z"/></clipPath><g clip-path="url(#a)" fill="#fff"><path d="m17.933 7.8291v12.6712h-11.72646v-12.6712h-5.563535v30.248h5.565035v-12.2601h11.72346v12.2601h5.5666v-30.248zm23.3777 20.4713c0 1.2124-.4852 2.3751-1.3487 3.2324-.8636.8573-2.0349 1.339-3.2562 1.339s-2.3926-.4817-3.2562-1.339c-.8635-.8573-1.3487-2.02-1.3487-3.2324v-12.9568h-5.2789v12.9568c0 2.5997 1.0403 5.0929 2.892 6.9311 1.8518 1.8383 4.3633 2.871 6.982 2.871 2.6188 0 5.1302-1.0327 6.982-2.871 1.8517-1.8382 2.892-4.3314 2.892-6.9311v-12.9568h-5.2593zm39.1149-11.6216c0-2.6569 1.7697-3.4986 3.708-3.4986 1.5634 0 3.6267 1.1811 4.9777 2.6135l3.4565-4.0459c-1.726-2.31742-5.2262-3.9187-8.0923-3.9187-5.7277 0-9.8695 3.3297-9.8695 8.8497 0 10.2416 12.6091 6.9912 12.6091 12.7235 0 1.7673-1.729 3.3282-3.708 3.3282-3.1222 0-4.1343-1.5146-5.5681-3.1174l-3.8375 3.9606c2.4549 2.9903 5.4822 4.5093 9.1074 4.5093 5.4415 0 9.8182-3.37 9.8182-8.6388 0-11.369-12.6105-7.836-12.6105-12.7654m78.0164 16.566c-3.12 0-4.007-1.3396-4.007-3.391v-9.0829h4.85v-4.602h-4.85v-6.0717l-5.352 2.3847v18.5008c0 4.732 3.289 7.1168 7.798 7.1168.708.0119 1.416-.0449 2.112-.1675l1.306-4.7724c-.589.0403-1.266.0807-1.857.0807m-97.0279-17.7457c-2.6146 0-4.44.7536-6.2052 2.4715v-9.95609h-5.2864v18.45439c0 6.9075 5.0304 11.6411 10.6843 11.6411 6.2714 0 11.7882-4.8173 11.7882-11.3032 0-6.4051-5.077-11.3032-10.9809-11.3032m-.0332 17.3241c-.7878 0-1.568-.1541-2.2959-.4534s-1.3893-.738-1.9464-1.2911c-.5571-.553-.999-1.2096-1.3005-1.9322s-.4567-1.497-.4567-2.2792c0-.7821.1552-1.5566.4567-2.2792s.7434-1.3791 1.3005-1.9322c.5571-.553 1.2185-.9918 1.9464-1.2911s1.5081-.4533 2.2959-.4533c1.5912 0 3.1172.6275 4.2424 1.7444 1.1251 1.1169 1.7572 2.6318 1.7572 4.2114s-.6321 3.0945-1.7572 4.2114c-1.1252 1.117-2.6512 1.7445-4.2424 1.7445zm57.4461-6.296c0-6.4978-5.505-11.3032-11.789-11.3032-5.652 0-10.6839 4.7321-10.6839 11.6411v18.4648h5.2859v-9.9695c1.763 1.7149 3.591 2.4715 6.203 2.4715 5.904 0 10.982-4.8981 10.982-11.3047m-5.005-.0658c0 1.5796-.632 3.0945-1.757 4.2114-1.125 1.117-2.651 1.7444-4.242 1.7444s-3.117-.6274-4.243-1.7444c-1.125-1.1169-1.757-2.6318-1.757-4.2114s.632-3.0945 1.757-4.2114c1.126-1.117 2.652-1.7444 4.243-1.7444s3.117.6274 4.242 1.7444c1.125 1.1169 1.757 2.6318 1.757 4.2114z"/><path d="m135.9 14.9711v-5.2733c.702-.32568 1.296-.84259 1.714-1.49055.417-.64797.641-1.40033.644-2.16953v-.1211c0-2.24269-1.831-4.06077-4.09-4.06077h-.122c-1.085 0-2.126.42783-2.893 1.18937s-1.198 1.79442-1.198 2.8714v.1211c.004.7692.227 1.52156.645 2.16953.417.64796 1.012 1.16487 1.714 1.49055v5.2733c-2.018.3067-3.918 1.1371-5.508 2.4072l-14.569-11.26432c.104-.37229.159-.75504.165-1.13929.001-.905-.267-1.79019-.772-2.5436-.505-.75342-1.224-1.34122-2.066-1.689051-.841-.347829-1.768-.44006-2.662-.265028-.895.175033-1.717.609469-2.363 1.248349-.645.63888-1.086 1.45351-1.265 2.34084s-.089 1.8075.258 2.64411c.348.83662.938 1.55209 1.695 2.05592.757.50384 1.648.7734 2.56.77458.797-.00373 1.58-.2151 2.27-.613l14.345 11.08189c-1.289 1.9327-1.961 4.206-1.929 6.5235.031 2.3176.766 4.5719 2.107 6.4692l-4.363 4.3329c-.353-.112-.72-.1715-1.091-.1765-.748.0006-1.479.2214-2.101.6345s-1.107.9999-1.393 1.6863c-.286.6865-.361 1.4417-.215 2.1702.146.7286.507 1.3978 1.036 1.9231s1.203.883 1.937 1.0281 1.495.0709 2.186-.2131c.692-.284 1.283-.7651 1.699-1.3825s.639-1.3435.639-2.0863c-.005-.3676-.065-.7324-.178-1.0825l4.317-4.2865c1.407 1.0757 3.044 1.8174 4.785 2.1681s3.54.3012 5.258-.1448c1.719-.446 3.312-1.2765 4.658-2.4281 1.345-1.1515 2.407-2.5935 3.104-4.2154s1.011-3.3808.918-5.1418-.591-3.4775-1.456-5.0179-2.073-2.8639-3.533-3.8691c-1.459-1.0052-3.131-1.6653-4.887-1.93zm-1.79 17.3435c-.797.0218-1.591-.1154-2.335-.4034-.743-.288-1.421-.721-1.993-1.2734s-1.027-1.2131-1.337-1.9429c-.311-.7298-.47-1.514-.47-2.3062 0-.7923.159-1.5764.47-2.3063.31-.7298.765-1.3904 1.337-1.9428.572-.5525 1.25-.9855 1.993-1.2735.744-.288 1.538-.4252 2.335-.4034 1.547.0538 3.011.7011 4.086 1.8057 1.075 1.1045 1.676 2.5801 1.677 4.1159s-.599 3.012-1.673 4.1176c-1.073 1.1056-2.537 1.7544-4.084 1.8097"/></g></svg>

<svg width="161" height="47" viewBox="0 0 161 47" fill="none" xmlns="http://www.w3.org/2000/svg">
    <g clip-path="url(#clip0_2534_13369)">
        <path
            d="M17.933 7.8291V20.5003H6.20654V7.8291H0.643005V38.0771H6.20804V25.817H17.9315V38.0771H23.4981V7.8291H17.933ZM41.3107 28.3004C41.3107 29.5128 40.8255 30.6755 39.962 31.5328C39.0984 32.3901 37.9271 32.8718 36.7058 32.8718C35.4845 32.8718 34.3132 32.3901 33.4496 31.5328C32.5861 30.6755 32.1009 29.5128 32.1009 28.3004V15.3436H26.822V28.3004C26.822 30.9001 27.8623 33.3933 29.714 35.2315C31.5658 37.0698 34.0773 38.1025 36.696 38.1025C39.3148 38.1025 41.8262 37.0698 43.678 35.2315C45.5297 33.3933 46.57 30.9001 46.57 28.3004V15.3436H41.3107V28.3004ZM80.4256 16.6788C80.4256 14.0219 82.1953 13.1802 84.1336 13.1802C85.697 13.1802 87.7603 14.3613 89.1113 15.7937L92.5678 11.7478C90.8418 9.43038 87.3416 7.8291 84.4755 7.8291C78.7478 7.8291 74.606 11.1588 74.606 16.6788C74.606 26.9204 87.2151 23.67 87.2151 29.4023C87.2151 31.1696 85.4861 32.7305 83.5071 32.7305C80.3849 32.7305 79.3728 31.2159 77.939 29.6131L74.1015 33.5737C76.5564 36.564 79.5837 38.083 83.2089 38.083C88.6504 38.083 93.0271 34.713 93.0271 29.4442C93.0271 18.0752 80.4166 21.6082 80.4166 16.6788M158.433 33.2448C155.313 33.2448 154.426 31.9052 154.426 29.8538V20.7709H159.276V16.1689H154.426V10.0972L149.074 12.4819V30.9827C149.074 35.7147 152.363 38.0995 156.872 38.0995C157.58 38.1114 158.288 38.0546 158.984 37.932L160.29 33.1596C159.701 33.1999 159.024 33.2403 158.433 33.2403M61.4051 15.4946C58.7905 15.4946 56.9651 16.2482 55.1999 17.9661V8.01001H49.9135V26.4644C49.9135 33.3719 54.9439 38.1055 60.5978 38.1055C66.8692 38.1055 72.386 33.2882 72.386 26.8023C72.386 20.3972 67.309 15.4991 61.4051 15.4991M61.3719 32.8232C60.5841 32.8232 59.8039 32.6691 59.076 32.3698C58.3481 32.0705 57.6867 31.6318 57.1296 31.0787C56.5725 30.5257 56.1306 29.8691 55.8291 29.1465C55.5276 28.4239 55.3724 27.6495 55.3724 26.8673C55.3724 26.0852 55.5276 25.3107 55.8291 24.5881C56.1306 23.8655 56.5725 23.209 57.1296 22.6559C57.6867 22.1029 58.3481 21.6641 59.076 21.3648C59.8039 21.0655 60.5841 20.9115 61.3719 20.9115C62.9631 20.9115 64.4891 21.539 65.6143 22.6559C66.7394 23.7728 67.3715 25.2877 67.3715 26.8673C67.3715 28.4469 66.7394 29.9618 65.6143 31.0787C64.4891 32.1957 62.9631 32.8232 61.3719 32.8232ZM118.818 26.5272C118.818 20.0294 113.313 15.224 107.029 15.224C101.377 15.224 96.3451 19.9561 96.3451 26.8651V45.3299H101.631V35.3604C103.394 37.0753 105.222 37.8319 107.834 37.8319C113.738 37.8319 118.816 32.9338 118.816 26.5272M113.811 26.4614C113.811 28.041 113.179 29.5559 112.054 30.6728C110.929 31.7898 109.403 32.4172 107.812 32.4172C106.221 32.4172 104.695 31.7898 103.569 30.6728C102.444 29.5559 101.812 28.041 101.812 26.4614C101.812 24.8818 102.444 23.3669 103.569 22.25C104.695 21.133 106.221 20.5056 107.812 20.5056C109.403 20.5056 110.929 21.133 112.054 22.25C113.179 23.3669 113.811 24.8818 113.811 26.4614Z"
            fill="white" />
        <path
            d="M135.9 14.9711V9.6978C136.602 9.37212 137.196 8.85521 137.614 8.20725C138.031 7.55928 138.255 6.80692 138.258 6.03772V5.91662C138.258 3.67393 136.427 1.85585 134.168 1.85585H134.046C132.961 1.85585 131.92 2.28368 131.153 3.04522C130.386 3.80676 129.955 4.83964 129.955 5.91662V6.03772C129.959 6.80692 130.182 7.55928 130.6 8.20725C131.017 8.85521 131.612 9.37212 132.314 9.6978V14.9711C130.296 15.2778 128.396 16.1082 126.806 17.3783L112.237 6.11398C112.341 5.74169 112.396 5.35894 112.402 4.97469C112.403 4.06969 112.135 3.1845 111.63 2.43109C111.125 1.67767 110.406 1.08987 109.564 0.742039C108.723 0.39421 107.796 0.301979 106.902 0.477011C106.007 0.652044 105.185 1.08648 104.539 1.72536C103.894 2.36424 103.453 3.17887 103.274 4.0662C103.095 4.95353 103.185 5.8737 103.532 6.71031C103.88 7.54693 104.47 8.2624 105.227 8.76623C105.984 9.27007 106.875 9.53963 107.787 9.54081C108.584 9.53708 109.367 9.32571 110.057 8.92781L124.402 20.0097C123.113 21.9424 122.441 24.2157 122.473 26.5332C122.504 28.8508 123.239 31.1051 124.58 33.0024L120.217 37.3353C119.864 37.2233 119.497 37.1638 119.126 37.1588C118.378 37.1594 117.647 37.3802 117.025 37.7933C116.403 38.2064 115.918 38.7932 115.632 39.4796C115.346 40.1661 115.271 40.9213 115.417 41.6498C115.563 42.3784 115.924 43.0476 116.453 43.5729C116.982 44.0982 117.656 44.4559 118.39 44.601C119.124 44.7461 119.885 44.6719 120.576 44.3879C121.268 44.1039 121.859 43.6228 122.275 43.0054C122.691 42.388 122.914 41.6619 122.914 40.9191C122.909 40.5515 122.849 40.1867 122.736 39.8366L127.053 35.5501C128.46 36.6258 130.097 37.3675 131.838 37.7182C133.579 38.0689 135.378 38.0194 137.096 37.5734C138.815 37.1274 140.408 36.2969 141.754 35.1453C143.099 33.9938 144.161 32.5518 144.858 30.9299C145.555 29.308 145.869 27.5491 145.776 25.7881C145.683 24.0271 145.185 22.3106 144.32 20.7702C143.455 19.2298 142.247 17.9063 140.787 16.9011C139.328 15.8959 137.656 15.2358 135.9 14.9711ZM134.11 32.3146C133.313 32.3364 132.519 32.1992 131.775 31.9112C131.032 31.6232 130.354 31.1902 129.782 30.6378C129.21 30.0854 128.755 29.4247 128.445 28.6949C128.134 27.9651 127.975 27.1809 127.975 26.3887C127.975 25.5964 128.134 24.8123 128.445 24.0824C128.755 23.3526 129.21 22.692 129.782 22.1396C130.354 21.5871 131.032 21.1541 131.775 20.8661C132.519 20.5781 133.313 20.4409 134.11 20.4627C135.657 20.5165 137.121 21.1638 138.196 22.2684C139.271 23.3729 139.872 24.8485 139.873 26.3843C139.874 27.9201 139.274 29.3963 138.2 30.5019C137.127 31.6075 135.663 32.2563 134.116 32.3116"
            fill="white" />
    </g>
    <defs>
        <clipPath id="clip0_2534_13369">
            <rect width="159.647" height="46.349" fill="white" transform="translate(0.643066 0.395752)" />
        </clipPath>
    </defs>
</svg>
